file/the-globe.svg

<svg clip-rule="evenodd" fill-rule="evenodd" stroke-linejoin="round" stroke-miterlimit="1.41421" viewBox="0 0 560 400" xmlns="http://www.w3.org/2000/svg"><path d="m113.92 30.655c-1.812-1.661-4.077-2.717-6.645-2.566l4.833-5.134c3.472.754 1.358 5.737 1.812 7.7m23.709.454-4.077-2.266c-.301-3.926 0-9.363.15-13.139l4.229 2.417zm-21.897-12.987c-1.358 1.661-2.718 2.868-4.378 4.53-.755 0-1.21-.905-1.965-1.358l.152-6.041c1.963 1.056 3.774 2.566 6.191 2.869zm9.363-3.927-.151-4.682c-2.114 1.662-4.079 4.38-6.343 6.041-2.567-.301-4.832-1.66-6.946-3.021-1.812 1.662-3.776 3.021-6.042 4.079.152 2.267-.301 4.076-.15 6.343l3.17 2.565c-1.66 2.268-4.983 4.079-4.68 6.948 0 .756 0 1.811.755 1.811-.454-.905-.755-2.87.904-3.322 2.417-.604 4.23.907 6.042 2.268 1.963-1.512 3.925-3.021 6.041-4.081l.149-6.643-3.02-2.265c1.662-1.511 3.02-2.869 4.682-4.531.454 0 1.208-.301 1.511.152l-.153 12.231-.754 1.812c1.509 1.057 3.325 2.718 4.984 3.474l3.926-3.474c1.965 1.209 4.079 2.568 6.191 3.773 2.114-1.961 4.079-3.47 6.495-4.53-.303-3.623-.303-9.36 0-12.835-1.813-1.206-3.776-2.265-5.74-3.171-1.961 1.813-4.076 3.171-6.342 4.229l-.15 11.325c-.906.451-1.058 1.661-2.265 1.963-1.059-.151-1.964-1.056-2.568-1.963.151-4.229 0-9.363.453-13.439 1.057.151 2.719.151 3.926 0 0-.303.151-.755-.15-.906zm-45.757 5.134-.151 9.967c1.208 1.661 2.568.153 3.926-.302l.151-7.247c-1.057-1.059-2.416-1.964-3.926-2.418zm107.37 2.418c1.208 2.265 1.51 5.587 0 7.853-1.511 1.51-3.775 2.113-6.041 1.963l-.303-13.139c2.569-1.057 5.136 1.056 6.344 3.323zm-12.836 4.377c-.303.755-.303 1.664-1.058 2.115-2.718-2.566-3.474-6.492-3.021-9.815.303-2.115 1.661-4.832 3.926-6.191zm11.778-13.136c-1.359 1.811-3.625 3.321-5.135 4.68l-.151-7.248c1.965.603 3.776 1.51 5.286 2.568zm-6.04 18.421c-2.416-.149-4.531-1.358-6.342-2.717 1.962-1.059 3.623-2.568 4.227-4.681v-14.195c.455-.756 1.51 0 2.115.15zm1.661-25.218c-4.53 3.776-9.512 6.191-13.892 10.269-2.115 3.323-2.115 6.948-.604 10.571 2.113 4.833 7.399 7.398 12.686 7.248 2.869-.905 5.586-2.265 8.002-4.529 1.359-1.812 4.684-3.474 3.776-6.646.151-3.775-3.172-6.796-6.343-8.002 1.813-1.965 4.681-4.381 6.494-6.192l-.454-.454-1.66 1.511c-2.72-1.057-5.437-2.114-8.005-3.776zm44.7 12.233-.151 12.686c-1.511.15-2.717-1.51-4.228-2.115v-10.873c.451-.604 1.207-1.208 1.962-1.51 1.058 0 1.965 1.056 2.417 1.812zm-7.247-9.665c-.906-.152-1.661-1.208-2.72-.907.906.755 1.51 1.964 1.661 3.02v17.367l-.603 2.114 6.34 3.775c1.813-2.114 4.381-3.474 6.495-4.833-.303-3.322-.15-8.458 0-11.778-.604-1.661-2.265-3.475-3.927-3.775l-4.379 3.473c-.454-.908.151-2.266 0-3.473.151-2.266-1.058-6.192 1.962-7.249-1.81-.302-3.622.756-4.829 2.266zm-8.761 22.804c-1.661-.605-2.869-1.662-4.378-2.419 0-4.075-.153-9.211.152-12.835l4.226 2.265zm-14.346-22.956c-.905-.151-1.662-1.057-2.417-1.057.152.604.755 1.208.905 1.962l.154 19.783-.907 1.813c1.359 1.056 2.719 2.115 4.229 3.02l3.775-3.322c2.114.756 4.075 2.418 6.342 3.473 1.813-1.811 3.927-3.624 6.344-4.529-.304-3.927-.304-9.063 0-12.987l-5.891-3.171c-1.963 2.113-4.229 3.471-6.645 4.53l.303 11.929c-.755.453-1.512 1.059-2.265 1.209-2.419-.303-1.662-2.718-1.814-3.926.152-5.587.152-10.271.152-15.707.15-2.114-.302-3.775 1.662-5.133-1.359 0-3.021.755-3.927 2.113zm45.304 11.629-4.076 2.868c.15-2.566 0-4.531.15-6.796 1.359.908 3.02 2.57 3.926 3.928zm3.774-1.812-5.134-4.983c-2.264 1.51-4.228 3.474-6.644 4.53l.15 2.266c-.302 2.868.454 7.098-.604 9.814 1.963 1.662 4.38 2.87 6.645 4.078 1.963-1.964 4.228-3.625 5.891-5.587-.152-.151 0-.453-.305-.303l-3.171 2.416c-1.66.454-3.171-.905-4.529-1.963l-.15-4.53zm-192.992 1.056-4.229 3.172.302-6.947c1.208 1.058 2.719 2.568 3.927 3.775zm-39.414 7.249-.453.604c-2.87-3.322-3.775-8.608-2.115-12.231l3.021-2.266c.302 5.134.453 8.911-.453 13.893zm6.795 3.775c-1.509 0-3.473-.754-4.983-1.51-.453-.604-1.208-.604-1.812-1.206 6.946-4.079 3.322-11.025 4.53-17.216l2.114.3zm10.269-23.407-1.358-1.51c-.454 6.795-.454 14.951-.454 22.803l-.302.453c-2.265 1.36-5.134 2.719-7.551 1.66.302-6.645-.151-12.382.152-19.481 1.359.152 3.02.152 4.38-.151l3.02-5.285-.301-.151c-.454-.151-.454.755-.755 1.058-2.115 2.265-5.89.755-8.457.755-3.929-.151-8.761-2.114-11.328 2.115-.302 1.359-.604 3.323.906 4.38-.151-.755-.906-1.21-.604-2.116.151-.755.755-1.66 1.51-1.51 2.265-.3 5.587 0 7.703.604-3.172 1.812-6.646 3.474-9.514 5.89-1.813 3.321-1.813 6.493-.302 9.966 2.416 4.984 7.853 7.248 13.439 7.096l6.947-3.623 3.322 2.718c1.359 1.058 2.566-1.359 3.474-2.113l-1.812-1.812.15-11.326c.907-.906 1.813-1.813 3.021-1.813.755.152 1.51.907 1.51 1.662v13.288l.906 1.662c2.568 2.868 4.38-1.964 6.795-2.113l5.438 3.47c1.963-1.81 4.378-3.773 6.041-5.435-1.058-.301-1.663 1.21-2.568 1.812-1.207.604-1.962.453-3.02-.301-3.171-.606-2.266-3.776-2.266-6.041l7.854-5.587c-1.663-1.813-3.474-3.474-5.287-4.984-1.962 1.661-4.077 3.323-6.342 4.38v11.625l-.454.458c-.906.904-2.265 1.81-3.171.301-.151-3.624-.301-9.513 0-12.986l-.301-1.209c-.755-1.207-1.964-2.567-3.474-2.717-1.661 1.056-3.17 2.566-4.682 3.473.302-3.929-1.208-9.062 1.661-11.781-1.811 0-3.172.906-3.926 2.416zm69.164 23.558-4.077-2.265c-.303-4.229-.152-9.363.15-13.138l4.228 2.265zm-1.36-18.122c-2.114 1.965-4.832 3.324-6.795 4.683.151 3.622.151 7.247-.15 11.023l-.604 1.057c1.964 1.359 4.229 2.719 6.342 3.929 2.265-1.815 4.379-3.324 6.796-4.532-.152-3.926-.301-9.363.301-12.987zm50.136 1.059c-.905-.604-1.812 1.056-2.869 1.51-.906.906.756 1.509 1.058 2.416l-.302 11.326c-.152.756-.756 1.36-.907 1.812l3.774 3.019 2.569-2.265c0-.905-1.51-1.358-1.813-2.266l.454-11.476c.756-.452 1.51-1.51 2.718-1.51.755.151 1.662 1.059 1.813 1.813.151 3.625 0 8.608-.302 12.685.453 1.51 1.661 2.569 2.869 3.171 1.662-1.058 3.324-2.566 4.529-3.775-.301-.15-.754.303-1.056.604-.604 1.058-1.661.454-2.266-.151-.605-3.625.15-8.757 0-12.382.454-1.208-.454-2.417-1.358-3.324-2.266-3.623-4.531 1.51-6.797 2.116-.604-1.058-1.055-2.417-2.114-3.323zm-67.502-5.739c-5.285 2.416-2.416 9.515-3.624 13.291-.906 2.112-3.322 3.774-5.134 4.83 2.718.303 4.983 1.511 7.249 2.719l.604-16.159c0-.3.453-.451.604-.151v6.496c1.51-.756 3.02-1.662 4.229-3.021.149-3.172-2.418-5.438-3.928-8.005zm-15.403-.604c-1.208 1.812-1.058 3.623 0 5.437h.151c0-.303-.151-.453-.151-.604-.604-.907-.151-2.115.303-2.871 2.415-1.057 5.285-.301 7.4.151-2.719 1.813-5.287 4.531-4.834 8.004h-2.869c-.755.452-1.813.906-1.962 1.962-.152.755-.302 1.814.453 2.266-.303-.757-.151-1.358.151-2.114.604-.453 1.51-.301 2.265-.453 1.662.301 2.567 1.51 1.962 3.02.151 1.511-1.056 2.719-1.962 3.473l1.812-.603c5.135-1.963 2.718-7.551 3.625-11.93.453-3.171 3.624-5.437 6.191-6.494-4.531.152-8.608-2.567-12.535.756zm23.256 6.343c-1.057 1.51-2.87 2.113-4.228 3.471 1.358 1.21 3.02 1.964 4.379 3.021-.755 2.568-.454 5.739-.604 8.155-3.171 1.057-6.645 1.965-8.91 4.682-4.229-2.114-9.061-5.587-13.742-2.87-1.057.906-1.209 3.021-.454 4.229-.755.304-.905-1.207-1.057-1.811-.454-1.512.755-2.869 1.51-4.229 2.265-3.321 7.551-.755 8.154-5.738.303-3.172-.453-6.947.755-9.968 2.417-3.623 6.041-4.982 9.363-7.549 1.663 2.716 3.928 5.435 4.834 8.607z" fill-rule="nonzero" transform="matrix(2.08334 0 0 2.08334 19.5835 159.374)"/></svg>

<?xml version="1.0" encoding="UTF-8" standalone="no"?>
<!DOCTYPE svg PUBLIC "-//W3C//DTD SVG 1.1//EN" "http://www.w3.org/Graphics/SVG/1.1/DTD/svg11.dtd">
<svg width="100%" height="100%" viewBox="0 0 560 400" version="1.1" xmlns="http://www.w3.org/2000/svg" xmlns:xlink="http://www.w3.org/1999/xlink" xml:space="preserve" xmlns:serif="http://www.serif.com/" style="fill-rule:evenodd;clip-rule:evenodd;stroke-linejoin:round;stroke-miterlimit:1.41421;">
    <g transform="matrix(2.08334,0,0,2.08334,19.5835,159.374)">
        <path d="M113.92,30.655C112.108,28.994 109.843,27.938 107.275,28.089L112.108,22.955C115.58,23.709 113.466,28.692 113.92,30.655M137.629,31.109L133.552,28.843C133.251,24.917 133.552,19.48 133.702,15.704L137.931,18.121L137.629,31.109ZM115.732,18.122C114.374,19.783 113.014,20.99 111.354,22.652C110.599,22.652 110.144,21.747 109.389,21.294L109.541,15.253C111.504,16.309 113.315,17.819 115.732,18.122ZM125.095,14.195L124.944,9.513C122.83,11.175 120.865,13.893 118.601,15.554C116.034,15.253 113.769,13.894 111.655,12.533C109.843,14.195 107.879,15.554 105.613,16.612C105.765,18.879 105.312,20.688 105.463,22.955L108.633,25.52C106.973,27.788 103.65,29.599 103.953,32.468C103.953,33.224 103.953,34.279 104.708,34.279C104.254,33.374 103.953,31.409 105.612,30.957C108.029,30.353 109.842,31.864 111.654,33.225C113.617,31.713 115.579,30.204 117.695,29.144L117.844,22.501L114.824,20.236C116.486,18.725 117.844,17.367 119.506,15.705C119.96,15.705 120.714,15.404 121.017,15.857L120.864,28.088L120.11,29.9C121.619,30.957 123.435,32.618 125.094,33.374L129.02,29.9C130.985,31.109 133.099,32.468 135.211,33.673C137.325,31.712 139.29,30.203 141.706,29.143C141.403,25.52 141.403,19.783 141.706,16.308C139.893,15.102 137.93,14.043 135.966,13.137C134.005,14.95 131.89,16.308 129.624,17.366L129.474,28.691C128.568,29.142 128.416,30.352 127.209,30.654C126.15,30.503 125.245,29.598 124.641,28.691C124.792,24.462 124.641,19.328 125.094,15.252C126.151,15.403 127.813,15.403 129.02,15.252C129.02,14.949 129.171,14.497 128.87,14.346L125.095,14.195ZM79.338,19.329L79.187,29.296C80.395,30.957 81.755,29.449 83.113,28.994L83.264,21.747C82.207,20.688 80.848,19.783 79.338,19.329ZM186.708,21.747C187.916,24.012 188.218,27.334 186.708,29.6C185.197,31.11 182.933,31.713 180.667,31.563L180.364,18.424C182.933,17.367 185.5,19.48 186.708,21.747ZM173.872,26.124C173.569,26.879 173.569,27.788 172.814,28.239C170.096,25.673 169.34,21.747 169.793,18.424C170.096,16.309 171.454,13.592 173.719,12.233L173.872,26.124ZM185.65,12.988C184.291,14.799 182.025,16.309 180.515,17.668L180.364,10.42C182.329,11.023 184.14,11.93 185.65,12.988ZM179.61,31.409C177.194,31.26 175.079,30.051 173.268,28.692C175.23,27.633 176.891,26.124 177.495,24.011L177.495,9.816C177.95,9.06 179.005,9.816 179.61,9.966L179.61,31.409ZM181.271,6.191C176.741,9.967 171.759,12.382 167.379,16.46C165.264,19.783 165.264,23.408 166.775,27.031C168.888,31.864 174.174,34.429 179.461,34.279C182.33,33.374 185.047,32.014 187.463,29.75C188.822,27.938 192.147,26.276 191.239,23.104C191.39,19.329 188.067,16.308 184.896,15.102C186.709,13.137 189.577,10.721 191.39,8.91L190.936,8.456L189.276,9.967C186.556,8.91 183.839,7.853 181.271,6.191ZM225.971,18.424L225.82,31.11C224.309,31.26 223.103,29.6 221.592,28.995L221.592,18.122C222.043,17.518 222.799,16.914 223.554,16.612C224.612,16.612 225.519,17.668 225.971,18.424ZM218.724,8.759C217.818,8.607 217.063,7.551 216.004,7.852C216.91,8.607 217.514,9.816 217.665,10.872L217.665,28.239L217.062,30.353L223.402,34.128C225.215,32.014 227.783,30.654 229.897,29.295C229.594,25.973 229.747,20.837 229.897,17.517C229.293,15.856 227.632,14.042 225.97,13.742L221.591,17.215C221.137,16.307 221.742,14.949 221.591,13.742C221.742,11.476 220.533,7.55 223.553,6.493C221.743,6.191 219.931,7.249 218.724,8.759ZM209.963,31.563C208.302,30.958 207.094,29.901 205.585,29.144C205.585,25.069 205.432,19.933 205.737,16.309L209.963,18.574L209.963,31.563ZM195.617,8.607C194.712,8.456 193.955,7.55 193.2,7.55C193.352,8.154 193.955,8.758 194.105,9.512L194.259,29.295L193.352,31.108C194.711,32.164 196.071,33.223 197.581,34.128L201.356,30.806C203.47,31.562 205.431,33.224 207.698,34.279C209.511,32.468 211.625,30.655 214.042,29.75C213.738,25.823 213.738,20.687 214.042,16.763L208.151,13.592C206.188,15.705 203.922,17.063 201.506,18.122L201.809,30.051C201.054,30.504 200.297,31.11 199.544,31.26C197.125,30.957 197.882,28.542 197.73,27.334C197.882,21.747 197.882,17.063 197.882,11.627C198.032,9.513 197.58,7.852 199.544,6.494C198.185,6.494 196.523,7.249 195.617,8.607ZM240.921,20.236L236.845,23.104C236.995,20.538 236.845,18.573 236.995,16.308C238.354,17.216 240.015,18.878 240.921,20.236ZM244.695,18.424L239.561,13.441C237.297,14.951 235.333,16.915 232.917,17.971L233.067,20.237C232.765,23.105 233.521,27.335 232.463,30.051C234.426,31.713 236.843,32.921 239.108,34.129C241.071,32.165 243.336,30.504 244.999,28.542C244.847,28.391 244.999,28.089 244.694,28.239L241.523,30.655C239.863,31.109 238.352,29.75 236.994,28.692L236.844,24.162L244.695,18.424ZM51.703,19.48L47.474,22.652L47.776,15.705C48.984,16.763 50.495,18.273 51.703,19.48ZM12.289,26.729L11.836,27.333C8.966,24.011 8.061,18.725 9.721,15.102L12.742,12.836C13.044,17.97 13.195,21.747 12.289,26.729ZM19.084,30.504C17.575,30.504 15.611,29.75 14.101,28.994C13.648,28.39 12.893,28.39 12.289,27.788C19.235,23.709 15.611,16.763 16.819,10.572L18.933,10.872L19.084,30.504ZM29.353,7.097L27.995,5.587C27.541,12.382 27.541,20.538 27.541,28.39L27.239,28.843C24.974,30.203 22.105,31.562 19.688,30.503C19.99,23.858 19.537,18.121 19.84,11.022C21.199,11.174 22.86,11.174 24.22,10.871L27.24,5.586L26.939,5.435C26.485,5.284 26.485,6.19 26.184,6.493C24.069,8.758 20.294,7.248 17.727,7.248C13.798,7.097 8.966,5.134 6.399,9.363C6.097,10.722 5.795,12.686 7.305,13.743C7.154,12.988 6.399,12.533 6.701,11.627C6.852,10.872 7.456,9.967 8.211,10.117C10.476,9.817 13.798,10.117 15.914,10.721C12.742,12.533 9.268,14.195 6.4,16.611C4.587,19.932 4.587,23.104 6.098,26.577C8.514,31.561 13.951,33.825 19.537,33.673L26.484,30.05L29.806,32.768C31.165,33.826 32.372,31.409 33.28,30.655L31.468,28.843L31.618,17.517C32.525,16.611 33.431,15.704 34.639,15.704C35.394,15.856 36.149,16.611 36.149,17.366L36.149,30.654L37.055,32.316C39.623,35.184 41.435,30.352 43.85,30.203L49.288,33.673C51.251,31.863 53.666,29.9 55.329,28.238C54.271,27.937 53.666,29.448 52.761,30.05C51.554,30.654 50.799,30.503 49.741,29.749C46.57,29.143 47.475,25.973 47.475,23.708L55.329,18.121C53.666,16.308 51.855,14.647 50.042,13.137C48.08,14.798 45.965,16.46 43.7,17.517L43.7,29.142L43.246,29.6C42.34,30.504 40.981,31.41 40.075,29.901C39.924,26.277 39.774,20.388 40.075,16.915L39.774,15.706C39.019,14.499 37.81,13.139 36.3,12.989C34.639,14.045 33.13,15.555 31.618,16.462C31.92,12.533 30.41,7.4 33.279,4.681C31.468,4.681 30.107,5.587 29.353,7.097ZM98.517,30.655L94.44,28.39C94.137,24.161 94.288,19.027 94.59,15.252L98.818,17.517L98.517,30.655ZM97.157,12.533C95.043,14.498 92.325,15.857 90.362,17.216C90.513,20.838 90.513,24.463 90.212,28.239L89.608,29.296C91.572,30.655 93.837,32.015 95.95,33.225C98.215,31.41 100.329,29.901 102.746,28.693C102.594,24.767 102.445,19.33 103.047,15.706L97.157,12.533ZM147.293,13.592C146.388,12.988 145.481,14.648 144.424,15.102C143.518,16.008 145.18,16.611 145.482,17.518L145.18,28.844C145.028,29.6 144.424,30.204 144.273,30.656L148.047,33.675L150.616,31.41C150.616,30.505 149.106,30.052 148.803,29.144L149.257,17.668C150.013,17.216 150.767,16.158 151.975,16.158C152.73,16.309 153.637,17.217 153.788,17.971C153.939,21.596 153.788,26.579 153.486,30.656C153.939,32.166 155.147,33.225 156.355,33.827C158.017,32.769 159.679,31.261 160.884,30.052C160.583,29.902 160.13,30.355 159.828,30.656C159.224,31.714 158.167,31.11 157.562,30.505C156.957,26.88 157.712,21.748 157.562,18.123C158.016,16.915 157.108,15.706 156.204,14.799C153.938,11.176 151.673,16.309 149.407,16.915C148.803,15.857 148.352,14.498 147.293,13.592ZM79.791,7.853C74.506,10.269 77.375,17.368 76.167,21.144C75.261,23.256 72.845,24.918 71.033,25.974C73.751,26.277 76.016,27.485 78.282,28.693L78.886,12.534C78.886,12.234 79.339,12.083 79.49,12.383L79.49,18.879C81,18.123 82.51,17.217 83.719,15.858C83.868,12.686 81.301,10.42 79.791,7.853ZM64.388,7.249C63.18,9.061 63.33,10.872 64.388,12.686L64.539,12.686C64.539,12.383 64.388,12.233 64.388,12.082C63.784,11.175 64.237,9.967 64.691,9.211C67.106,8.154 69.976,8.91 72.091,9.362C69.372,11.175 66.804,13.893 67.257,17.366L64.388,17.366C63.633,17.818 62.575,18.272 62.426,19.328C62.274,20.083 62.124,21.142 62.879,21.594C62.576,20.837 62.728,20.236 63.03,19.48C63.634,19.027 64.54,19.179 65.295,19.027C66.957,19.328 67.862,20.537 67.257,22.047C67.408,23.558 66.201,24.766 65.295,25.52L67.107,24.917C72.242,22.954 69.825,17.366 70.732,12.987C71.185,9.816 74.356,7.55 76.923,6.493C72.392,6.645 68.315,3.926 64.388,7.249ZM87.644,13.592C86.587,15.102 84.774,15.705 83.416,17.063C84.774,18.273 86.436,19.027 87.795,20.084C87.04,22.652 87.341,25.823 87.191,28.239C84.02,29.296 80.546,30.204 78.281,32.921C74.052,30.807 69.22,27.334 64.539,30.051C63.482,30.957 63.33,33.072 64.085,34.28C63.33,34.584 63.18,33.073 63.028,32.469C62.574,30.957 63.783,29.6 64.538,28.24C66.803,24.919 72.089,27.485 72.692,22.502C72.995,19.33 72.239,15.555 73.447,12.534C75.864,8.911 79.488,7.552 82.81,4.985C84.473,7.701 86.738,10.42 87.644,13.592Z" style="fill-rule:nonzero;"/>
    </g>
</svg>
